X:781
T:Sound The Pibroch
C:Joe Buchanan's Scottish Tome - Page 534.3
I:534 3
Z:Carl Allison
R:Slow Air
L:1/4
M:3/4
K:G
"G"(B2 A)| "G"(A2 "G7"G)| "C"(G2 E)| "G"(D2 D)| "G"(B2 A)| "A"(A2 "Am"G)| "A"(G2 "Am"E)| "D"(D2 "D7"D)|
"G"(G2 G)| "E"(G2 "Em"G)| "G"(B "G7"d2)| "C"(e2 "C"e)| "G"d e | "E"d "Em"B | "D"A3 | "G"G3 |
"G"(D G2)| "D"(G2 A)| "G"(B2 A) | "D"(G "G"D2)| "A"(E "Am"A2)| "E"(A2 "Am"B)| "A"(c2 "Am"B)| "D"(A "D"E2)|
"G"(D G2)| "E"(G2 "Em"G)| "G"(B d2)| "C"e3 | "G"(d2 e)| "E"(d "Em"B2)| "D"A3"D7" | "G"G3 :|

